images/uptime.svg

<svg height="31" viewBox="0 0 37 31" width="37" xmlns="http://www.w3.org/2000/svg"><g fill="none" stroke="#000"><path d="m24.861 22.656 1 9.279-22.736-16.935 22.736-16.935-1 9.279h7.014v15.312z" transform="matrix(0 1 -1 0 33.5 -1.5)"/><path d="m21.861 21.656 1 7.279-16.736-12.935 16.736-12.935-1 7.279h7.014v11.312z" transform="matrix(0 1 -1 0 34.5 -.5)"/></g></svg>

<svg xmlns="http://www.w3.org/2000/svg" width="37" height="31" viewBox="0 0 37 31">
    <g fill="none" stroke="#000">
        <path d="M24.861 22.656L25.861 31.935 3.125 15 25.861 -1.935 24.861 7.344 31.875 7.344 31.875 22.656z" transform="translate(1 1) rotate(90 17.5 15)"/>
        <path d="M21.861 21.656L22.861 28.935 6.125 16 22.861 3.065 21.861 10.344 28.875 10.344 28.875 21.656z" transform="translate(1 1) rotate(90 17.5 16)"/>
    </g>
</svg>
